teeny/outline/gatsbyjs.svg

<svg width="15" height="15" viewBox="0 0 15 15" fill="none" xmlns="http://www.w3.org/2000/svg">
<path d="M11.0707 4C10.1632 3.07432 8.89868 2.5 7.49998 2.5C5.26116 2.5 3.36601 3.97145 2.72888 6L8.99998 12.2711C10.8756 11.682 12.275 10.0174 12.4753 8H8.99998M2.5 8.5L6.5 12.5M7.5 14.5C3.63401 14.5 0.5 11.366 0.5 7.5C0.5 3.63401 3.63401 0.5 7.5 0.5C11.366 0.5 14.5 3.63401 14.5 7.5C14.5 11.366 11.366 14.5 7.5 14.5Z" stroke="black"/>
</svg>

<svg viewBox="0 0 15 15" xmlns="http://www.w3.org/2000/svg"><path fill="none" stroke="#000" d="M11.07 4c-.91-.93-2.18-1.5-3.58-1.5 -2.24 0-4.14 1.47-4.78 3.5l6.27 6.27c1.87-.59 3.27-2.26 3.47-4.28H8.97m-6.5.5l4 4m1 2c-3.87 0-7-3.14-7-7 0-3.87 3.13-7 7-7 3.86 0 7 3.13 7 7 0 3.86-3.14 7-7 7Z"/></svg>
